svg/monochrome/hospital-square-sign.svg

<svg xmlns="http://www.w3.org/2000/svg" viewBox="0 0 24 24"><path class="uim-primary" d="M15 6a1 1 0 0 0-1 1v4h-4V7a1 1 0 0 0-2 0v10a1 1 0 0 0 2 0v-4h4v4a1 1 0 0 0 2 0V7a1 1 0 0 0-1-1Z"/><path class="uim-tertiary" d="M19 2H5a3.003 3.003 0 0 0-3 3v14a3.003 3.003 0 0 0 3 3h14a3.003 3.003 0 0 0 3-3V5a3.003 3.003 0 0 0-3-3Zm-3 15a1 1 0 0 1-2 0v-4h-4v4a1 1 0 0 1-2 0V7a1 1 0 0 1 2 0v4h4V7a1 1 0 0 1 2 0Z"/></svg>

<svg xmlns="http://www.w3.org/2000/svg" data-name="Layer 1" viewBox="0 0 24 24"><path class="uim-primary" d="M15,6a.99974.99974,0,0,0-1,1v4H10V7A1,1,0,0,0,8,7V17a1,1,0,0,0,2,0V13h4v4a1,1,0,0,0,2,0V7A.99974.99974,0,0,0,15,6Z"/><path class="uim-tertiary" d="M19,2H5A3.00328,3.00328,0,0,0,2,5V19a3.00328,3.00328,0,0,0,3,3H19a3.00328,3.00328,0,0,0,3-3V5A3.00328,3.00328,0,0,0,19,2ZM16,17a1,1,0,0,1-2,0V13H10v4a1,1,0,0,1-2,0V7a1,1,0,0,1,2,0v4h4V7a1,1,0,0,1,2,0Z"/></svg>
